svgs/duotone/tablet-screen-button.svg

<svg xmlns="http://www.w3.org/2000/svg" viewBox="0 0 448 512"><!-- Font Awesome Pro 6.0.0-alpha2 by @fontawesome - https://fontawesome.com License - https://fontawesome.com/license (Commercial License) --><defs><style>.fa-secondary{opacity:.4}</style></defs><path d="M384 0.001H64C28.654 0.001 0 28.653 0 64.001V448.001C0 483.346 28.654 512.001 64 512.001H384C419.346 512.001 448 483.346 448 448.001V64.001C448 28.653 419.346 0.001 384 0.001ZM224 480.001C206.25 480.001 192 465.751 192 448.001S206.25 416.001 224 416.001S256 430.251 256 448.001S241.75 480.001 224 480.001ZM384 384.001H64V64.001H384V384.001Z" class="fa-secondary"/><path d="M384 384.001H64V64.001H384V384.001Z" class="fa-primary"/></svg>

<svg xmlns="http://www.w3.org/2000/svg" viewBox="0 0 448 512"><!--! Font Awesome Pro 6.3.0 by @fontawesome - https://fontawesome.com License - https://fontawesome.com/license (Commercial License) Copyright 2023 Fonticons, Inc. --><defs><style>.fa-secondary{opacity:.4}</style></defs><path class="fa-primary" d="M384 384H64v-320h320V384z"/><path class="fa-secondary" d="M384 .0001H64c-35.35 0-64 28.65-64 64v384c0 35.35 28.65 63.1 64 63.1h320c35.35 0 64-28.65 64-63.1v-384C448 28.65 419.3 .0001 384 .0001zM224 480c-17.75 0-32-14.25-32-32s14.25-32 32-32s32 14.25 32 32S241.8 480 224 480zM384 384H64v-320h320V384z"/></svg>
